X: 17002
T: HeadLifter
R: jig
M: 6/8
K: Fmajor
|:F2f efg|gfe fcB|Acf Bcf|Acf Gcf|
F2f efg|gfe fab|c'af gfe|1 cde fcA:|2 cde f2c||
|:fga bag|a2f gec|fga bab|bc'g gfe|
fga bag|a2f gec|efd cAG|1 Ffe f2c:|2 Ffe fcA||

